packages/sources/icons/src/vitamix/earth-line.svg

<svg width="16" height="16" viewBox="0 0 16 16" xmlns="http://www.w3.org/2000/svg"><path d="M4.15665 4.30198C3.30667 5.18417 2.78631 6.33208 2.68303 7.55276C2.57974 8.77343 2.89983 9.99245 3.58948 11.0049C4.27914 12.0174 5.29632 12.7616 6.47005 13.1124C7.64379 13.4632 8.90251 13.3993 10.0346 12.9313C10.1113 12.4313 9.94331 11.9513 9.87465 11.7833C9.72131 11.41 9.21598 10.772 8.37265 9.88731C8.14731 9.65065 8.16198 9.46865 8.24265 8.92931L8.25131 8.86865C8.30598 8.49931 8.39798 8.28065 9.64131 8.08331C10.2733 7.98331 10.4393 8.23531 10.6693 8.58531L10.7466 8.69998C10.9653 9.01998 11.1273 9.09331 11.372 9.20398C11.482 9.25398 11.6186 9.31731 11.802 9.42065C12.2366 9.66931 12.2366 9.94998 12.2366 10.5646V10.6346C12.2366 10.8953 12.2113 11.1246 12.1713 11.324C12.6829 10.6819 13.0394 9.93047 13.213 9.12811C13.3867 8.32574 13.3728 7.49413 13.1725 6.698C12.9722 5.90187 12.5909 5.16272 12.0582 4.53807C11.5255 3.91343 10.8558 3.42015 10.1013 3.09665C9.73265 3.34531 9.22665 3.69798 9.04998 3.93998C8.95998 4.06331 8.83198 4.69465 8.41665 4.74665C8.30865 4.75998 8.16265 4.75065 8.00798 4.74065C7.59331 4.71398 7.02665 4.67731 6.84531 5.16998C6.72998 5.48198 6.70998 6.32998 7.08265 6.76998C7.14265 6.83998 7.15398 6.96998 7.11331 7.11598C7.05998 7.30731 6.95265 7.42398 6.91865 7.44798C6.85465 7.41065 6.72665 7.26198 6.63931 7.16131C6.43065 6.91798 6.16931 6.61465 5.83198 6.52131C5.70931 6.48731 5.57465 6.45931 5.44331 6.43131C5.07731 6.35465 4.66331 6.26731 4.56665 6.06198C4.49598 5.91131 4.49665 5.70398 4.49665 5.48531C4.49665 5.20731 4.49665 4.89331 4.36065 4.58865C4.31337 4.47992 4.24388 4.38227 4.15665 4.30198ZM7.99998 14.6666C4.31798 14.6666 1.33331 11.682 1.33331 7.99998C1.33331 4.31798 4.31798 1.33331 7.99998 1.33331C11.682 1.33331 14.6666 4.31798 14.6666 7.99998C14.6666 11.682 11.682 14.6666 7.99998 14.6666Z"/></svg>

<svg width="16" height="16" xmlns="http://www.w3.org/2000/svg"><path d="M4.157 4.302a5.333 5.333 0 0 0 5.878 8.63c.076-.5-.092-.98-.16-1.149-.154-.373-.659-1.011-1.502-1.896-.226-.236-.211-.418-.13-.958l.008-.06c.055-.37.147-.588 1.39-.786.632-.1.798.152 1.028.502l.078.115c.218.32.38.393.625.504.11.05.247.113.43.217.435.248.435.529.435 1.144v.07c0 .26-.026.49-.066.689a5.334 5.334 0 0 0-2.07-8.227c-.368.248-.874.601-1.051.843-.09.123-.218.755-.633.807a2.445 2.445 0 0 1-.409-.006c-.415-.027-.981-.064-1.163.429-.115.312-.135 1.16.238 1.6.06.07.071.2.03.346a.676.676 0 0 1-.194.332c-.064-.037-.192-.186-.28-.287-.208-.243-.47-.546-.807-.64-.123-.034-.257-.062-.389-.09-.366-.076-.78-.164-.876-.369-.071-.15-.07-.358-.07-.577 0-.278 0-.592-.136-.896a.85.85 0 0 0-.204-.287ZM8 14.667A6.666 6.666 0 1 1 8 1.334a6.666 6.666 0 0 1 0 13.333Z"/></svg>
